Simply-Blue-Circles/scalable/apps/alienarena.svg

<svg xmlns="http://www.w3.org/2000/svg" width="48" height="48" viewBox="0 0 12.7 12.7"><path fill="#2c89a0" d="M6.35.061a6.29 6.29 0 0 0-6.289 6.29 6.29 6.29 0 0 0 6.29 6.288 6.29 6.29 0 0 0 6.288-6.288A6.29 6.29 0 0 0 6.351.06zm-.018.936a5.407 5.407 0 0 1 5.407 5.407 5.407 5.407 0 0 1-5.407 5.407A5.407 5.407 0 0 1 .925 6.404 5.407 5.407 0 0 1 6.332.997zm-.006.756c-2.104 0-3.81 1.235-3.81 3.685s2.023 5.84 3.81 5.84c1.682 0 3.81-3.39 3.81-5.84 0-2.45-1.706-3.685-3.81-3.685zm2.345 4.763c.158-.005.316.008.471.041a1.935 1.935 0 0 1-2.297 2.297A1.935 1.935 0 0 1 8.67 6.516zm-4.69.033c.473.017.941.203 1.302.559a1.89 1.89 0 0 1 .525 1.747c-.62.13-1.29-.044-1.772-.518A1.89 1.89 0 0 1 3.51 6.59c.155-.033.313-.046.47-.04z"/></svg>

<?xml version="1.0" encoding="UTF-8" standalone="no"?>
<svg
   xmlns:dc="http://purl.org/dc/elements/1.1/"
   xmlns:cc="http://creativecommons.org/ns#"
   xmlns:rdf="http://www.w3.org/1999/02/22-rdf-syntax-ns#"
   xmlns:svg="http://www.w3.org/2000/svg"
   xmlns="http://www.w3.org/2000/svg"
   xmlns:sodipodi="http://sodipodi.sourceforge.net/DTD/sodipodi-0.dtd"
   xmlns:inkscape="http://www.inkscape.org/namespaces/inkscape"
   width="48"
   height="48"
   viewBox="0 0 12.7 12.7"
   version="1.1"
   id="svg4"
   sodipodi:docname="alienarena.svg"
   inkscape:version="0.92.4 (5da689c313, 2019-01-14)">
  <metadata
     id="metadata10">
    <rdf:RDF>
      <cc:Work
         rdf:about="">
        <dc:format>image/svg+xml</dc:format>
        <dc:type
           rdf:resource="http://purl.org/dc/dcmitype/StillImage" />
        <dc:title></dc:title>
      </cc:Work>
    </rdf:RDF>
  </metadata>
  <defs
     id="defs8" />
  <sodipodi:namedview
     pagecolor="#ffffff"
     bordercolor="#666666"
     borderopacity="1"
     objecttolerance="10"
     gridtolerance="10"
     guidetolerance="10"
     inkscape:pageopacity="0"
     inkscape:pageshadow="2"
     inkscape:window-width="1087"
     inkscape:window-height="480"
     id="namedview6"
     showgrid="false"
     inkscape:zoom="4.9166667"
     inkscape:cx="2.1355932"
     inkscape:cy="24"
     inkscape:window-x="0"
     inkscape:window-y="25"
     inkscape:window-maximized="0"
     inkscape:current-layer="svg4" />
  <path
     d="M 6.35,0.061 A 6.29,6.29 0 0 0 0.061,6.351 6.29,6.29 0 0 0 6.351,12.639 6.29,6.29 0 0 0 12.639,6.351 6.29,6.29 0 0 0 6.351,0.06 Z M 6.332,0.997 A 5.407,5.407 0 0 1 11.739,6.404 5.407,5.407 0 0 1 6.332,11.811 5.407,5.407 0 0 1 0.925,6.404 5.407,5.407 0 0 1 6.332,0.997 Z M 6.326,1.753 c -2.104,0 -3.81,1.235 -3.81,3.685 0,2.45 2.023,5.84 3.81,5.84 1.682,0 3.81,-3.39 3.81,-5.84 0,-2.45 -1.706,-3.685 -3.81,-3.685 z M 8.671,6.516 C 8.829,6.511 8.987,6.524 9.142,6.557 A 1.935,1.935 0 0 1 6.845,8.854 1.935,1.935 0 0 1 8.67,6.516 Z M 3.981,6.549 C 4.454,6.566 4.922,6.752 5.283,7.108 5.764,7.582 5.939,8.244 5.808,8.855 5.188,8.985 4.518,8.811 4.036,8.337 A 1.89,1.89 0 0 1 3.51,6.59 C 3.665,6.557 3.823,6.544 3.98,6.55 Z"
     id="path2"
     inkscape:connector-curvature="0"
     style="fill:#2c89a0" />
</svg>
